X:96
T: Vierter Tanz (Band 1), S. 267
N: P0871
O: Lothringen
S: PINCK, Louis: Verklingende Weisen, Bd 1, Metz 1928]
R: Tanzlied]
M: 2/4
L: 1/16
K: D
 | d2z2c2z2 | B2BBA4 |
G2B2E2G2 | F2A2D2
D2 | E2E2A2C2 | D4z4 |
d2z2c2z2 | BBBBA4 |
G2B2E2G2 | F2A2D2
D2 | E2A2A2C2 | D4z4 |
F2A2D4 | F2A2D4 | A3dd2c2 | B4A4 |
G2B2E2G2 | F2A2D2
D2 | E2E2A2C2 | E4D2z2

@@@ Tune index: 7646
